X:5433
T:Rambling Pitchfork, The
T:Fisherman's Widow, The
O:england
R:jig
M:6/8
L:1/8
K:D
~F3 AFF|dFF AFD|~G3 ABc|ded cBA|
~F3 AFF|dFF AFD|GFG BAB|1 AFD D2E:|2 AFD D3||
|:d2e fed|edB AFA|d2e fed|faf gfe|
d2e fed|edB AFA|~G3 BAB|1 AFD D3:|2 AFD D2E||
"Version 2:"
|:~F3 AFF|=cFF AFD|~G3 GBd|fed =cAG|
~F3 AFF|=cFF AFD|GFG BGB|1 AFD D2E:|2 AFD D3||
|:d2e fdf|ecA AFA|d2e fed|f/g/af gfe|
d2e fdf|ecA AGF|~G3 BGB|1 AFD D3:|2 AFD D2E||


